assets/icons/24px/outline/line-weight-24px.svg

<svg width="24" height="24" viewBox="0 0 24 24" fill="none" xmlns="http://www.w3.org/2000/svg">
<path d="M5 17H19C19.4997 17 19.7738 17.0021 19.964 17.0277C19.9665 17.028 19.9689 17.0284 19.9713 17.0287C19.9716 17.0311 19.972 17.0335 19.9723 17.036C19.9979 17.2262 20 17.5003 20 18V19C20 19.4997 19.9979 19.7738 19.9723 19.964C19.972 19.9665 19.9716 19.9689 19.9713 19.9713C19.9689 19.9716 19.9665 19.972 19.964 19.9723C19.7738 19.9979 19.4997 20 19 20H5C4.50033 20 4.22617 19.9979 4.03598 19.9723C4.0335 19.972 4.03107 19.9716 4.02869 19.9713C4.02836 19.9689 4.02803 19.9665 4.02769 19.964C4.00212 19.7738 4 19.4997 4 19V18C4 17.5003 4.00212 17.2262 4.02769 17.036C4.02803 17.0335 4.02836 17.0311 4.02869 17.0287C4.03107 17.0284 4.0335 17.028 4.03598 17.0277C4.22617 17.0021 4.50033 17 5 17Z" fill="white" stroke="white" stroke-width="2"/>
<path d="M4.75 10H19.25C19.6219 10 19.8256 10.0012 19.9703 10.0159C19.9747 10.0164 19.9788 10.0168 19.9827 10.0173C19.9832 10.0212 19.9836 10.0253 19.9841 10.0297C19.9988 10.1744 20 10.3781 20 10.75C20 11.1219 19.9988 11.3256 19.9841 11.4703C19.9836 11.4747 19.9832 11.4788 19.9827 11.4827C19.9788 11.4832 19.9747 11.4836 19.9703 11.4841C19.8256 11.4988 19.6219 11.5 19.25 11.5H4.75C4.37807 11.5 4.1744 11.4988 4.02967 11.4841C4.02535 11.4836 4.02121 11.4832 4.01725 11.4827C4.01681 11.4788 4.01637 11.4747 4.01593 11.4703C4.00121 11.3256 4 11.1219 4 10.75C4 10.3781 4.00121 10.1744 4.01593 10.0297C4.01637 10.0253 4.01681 10.0212 4.01725 10.0173C4.02121 10.0168 4.02535 10.0164 4.02967 10.0159C4.1744 10.0012 4.37807 10 4.75 10Z" fill="white" stroke="white" stroke-width="2"/>
<mask id="path-3-inside-1_913_26444" fill="white">
<path d="M3 4.75C3 4.33579 3.33579 4 3.75 4H20.25C20.6642 4 21 4.33579 21 4.75V4.75C21 5.16421 20.6642 5.5 20.25 5.5H3.75C3.33579 5.5 3 5.16421 3 4.75V4.75Z"/>
</mask>
<path d="M3 4.75C3 4.33579 3.33579 4 3.75 4H20.25C20.6642 4 21 4.33579 21 4.75V4.75C21 5.16421 20.6642 5.5 20.25 5.5H3.75C3.33579 5.5 3 5.16421 3 4.75V4.75Z" fill="white"/>
<path d="M3.75 6H20.25V2H3.75V6ZM20.25 3.5H3.75V7.5H20.25V3.5ZM3.75 3.5C4.44036 3.5 5 4.05964 5 4.75H1C1 6.26878 2.23122 7.5 3.75 7.5V3.5ZM19 4.75C19 4.05964 19.5596 3.5 20.25 3.5V7.5C21.7688 7.5 23 6.26878 23 4.75H19ZM20.25 6C19.5596 6 19 5.44036 19 4.75H23C23 3.23122 21.7688 2 20.25 2V6ZM3.75 2C2.23122 2 1 3.23122 1 4.75H5C5 5.44036 4.44036 6 3.75 6V2Z" fill="white" mask="url(#path-3-inside-1_913_26444)"/>
</svg>

<svg width="24" height="24" fill="none" xmlns="http://www.w3.org/2000/svg"><path d="M5 17h14c.5 0 .774.002.964.028h.007l.001.008c.026.19.028.464.028.964v1c0 .5-.002.774-.028.964v.007l-.008.001c-.19.026-.464.028-.964.028H5c-.5 0-.774-.002-.964-.028h-.007l-.001-.008C4.002 19.774 4 19.5 4 19v-1c0-.5.002-.774.028-.964v-.007l.008-.001C4.226 17.002 4.5 17 5 17zm-.25-7h14.5c.372 0 .576.001.72.016l.013.001.001.013c.015.144.016.348.016.72s-.001.576-.016.72l-.001.013-.013.001a8.293 8.293 0 0 1-.72.016H4.75c-.372 0-.576-.001-.72-.016l-.013-.001-.001-.013A8.28 8.28 0 0 1 4 10.75a8.28 8.28 0 0 1 .017-.733l.013-.001C4.174 10 4.378 10 4.75 10z" fill="#fff" stroke="#fff" stroke-width="2"/><mask id="a" fill="#fff"><path d="M3 4.75A.75.75 0 0 1 3.75 4h16.5a.75.75 0 0 1 0 1.5H3.75A.75.75 0 0 1 3 4.75z"/></mask><path d="M3 4.75A.75.75 0 0 1 3.75 4h16.5a.75.75 0 0 1 0 1.5H3.75A.75.75 0 0 1 3 4.75z" fill="#fff"/><path d="M3.75 6h16.5V2H3.75v4zm16.5-2.5H3.75v4h16.5v-4zm-16.5 0C4.44 3.5 5 4.06 5 4.75H1A2.75 2.75 0 0 0 3.75 7.5v-4zM19 4.75c0-.69.56-1.25 1.25-1.25v4A2.75 2.75 0 0 0 23 4.75h-4zM20.25 6C19.56 6 19 5.44 19 4.75h4A2.75 2.75 0 0 0 20.25 2v4zM3.75 2A2.75 2.75 0 0 0 1 4.75h4C5 5.44 4.44 6 3.75 6V2z" fill="#fff" mask="url(#a)"/></svg>
